icons/svg/arrow-right-bold-circle-outline.svg

﻿<?xml version="1.0" encoding="utf-8"?>
<!DOCTYPE svg PUBLIC "-//W3C//DTD SVG 1.1//EN" "http://www.w3.org/Graphics/SVG/1.1/DTD/svg11.dtd">
<svg xmlns="http://www.w3.org/2000/svg" xmlns:xlink="http://www.w3.org/1999/xlink" version="1.1" baseProfile="full" width="24" height="24" viewBox="0 0 24.00 24.00" enable-background="new 0 0 24.00 24.00" xml:space="preserve">
	<path fill="#000000" fill-opacity="1" stroke-width="0.2" stroke-linejoin="round" d="M 17,12L 12,17L 12,14L 7.99998,14L 7.99998,9.99996L 12,9.99996L 12,6.99996L 17,12 Z M 1.99999,12C 1.99999,6.47716 6.47715,2.00001 12,2.00001C 17.5228,2.00001 22,6.47716 22,12C 22,17.5228 17.5228,22 12,22C 6.47715,22 1.99999,17.5228 1.99999,12 Z M 4,12C 4,16.4183 7.58172,20 12,20C 16.4183,20 20,16.4183 20,12C 20,7.58173 16.4183,4.00001 12,4.00001C 7.58172,4.00001 4,7.58173 4,12 Z "/>
</svg>

<svg xmlns="http://www.w3.org/2000/svg" version="1.1" baseProfile="full" width="24" height="24" viewBox="0 0 24.00 24.00" xml:space="preserve"><path fill="#000" fill-opacity="1" stroke-width=".2" stroke-linejoin="round" d="M17 12l-5 5v-3H8v-4h4V7l5 5zM2 12C2 6.477 6.477 2 12 2s10 4.477 10 10-4.477 10-10 10S2 17.523 2 12zm2 0c0 4.418 3.582 8 8 8s8-3.582 8-8-3.582-8-8-8-8 3.582-8 8z"/></svg>
